static/fa/svgs/solid/plane-departure.svg

<svg xmlns="http://www.w3.org/2000/svg" viewBox="0 0 640 512"><!--! Font Awesome Free 6.1.1 by @fontawesome - https://fontawesome.com License - https://fontawesome.com/license/free (Icons: CC BY 4.0, Fonts: SIL OFL 1.1, Code: MIT License) Copyright 2022 Fonticons, Inc.--><path d="M484.6 62c18-9.2 38-14 58.2-14h57.4c27 0 45.7 26.95 36.2 52.2-18.2 48.7-54.3 88.7-100.8 112L262.8 348.6c-4.5 2.2-9.4 3.4-14.4 3.4H110.7c-9.3 0-18.2-4.1-24.28-11.2l-73.08-85.2c-6.778-7.9-4.321-20.1 4.99-24.8l32.16-16c8.56-4.3 18.57-4.6 27.31-.7l57.3 25 99.5-49.4L87.64 95.2c-10.43-6.71-9.59-22.22 1.5-27.77L135 44.48c15.1-7.96 34.5-8.93 51.1-2.68L381 114.9 484.6 62zM0 480c0-17.7 14.33-32 32-32h576c17.7 0 32 14.3 32 32s-14.3 32-32 32H32c-17.67 0-32-14.3-32-32z"/></svg>

<svg xmlns="http://www.w3.org/2000/svg" viewBox="0 0 640 512"><!--! Font Awesome Free 6.1.1 by @fontawesome - https://fontawesome.com License - https://fontawesome.com/license/free (Icons: CC BY 4.0, Fonts: SIL OFL 1.1, Code: MIT License) Copyright 2022 Fonticons, Inc. --><path d="M484.6 62C502.6 52.8 522.6 48 542.8 48H600.2C627.2 48 645.9 74.95 636.4 100.2C618.2 148.9 582.1 188.9 535.6 212.2L262.8 348.6C258.3 350.8 253.4 352 248.4 352H110.7C101.4 352 92.5 347.9 86.42 340.8L13.34 255.6C6.562 247.7 9.019 235.5 18.33 230.8L50.49 214.8C59.05 210.5 69.06 210.2 77.8 214.1L135.1 239.1L234.6 189.7L87.64 95.2C77.21 88.49 78.05 72.98 89.14 67.43L135 44.48C150.1 36.52 169.5 35.55 186.1 41.8L381 114.9L484.6 62zM0 480C0 462.3 14.33 448 32 448H608C625.7 448 640 462.3 640 480C640 497.7 625.7 512 608 512H32C14.33 512 0 497.7 0 480z"/></svg>
